icons/desktop/20/flower-20.svg

<svg width="20" height="20" viewBox="0 0 20 20" fill="none" xmlns="http://www.w3.org/2000/svg">
<g clip-path="url(#clip0_8069_32745)">
<path d="M10.5 9.25098C11.1903 9.25101 11.75 9.81064 11.75 10.501C11.75 11.1913 11.1903 11.7509 10.5 11.751C9.80964 11.751 9.25 11.1913 9.25 10.501C9.25 9.81062 9.80964 9.25098 10.5 9.25098Z" fill="black"/>
<path fill-rule="evenodd" clip-rule="evenodd" d="M10.502 1.00098C12.707 1.00098 14.564 2.50922 15.084 4.57422C17.8078 4.46624 19.9998 6.63776 20.001 9.30957C20.003 10.7656 19.3396 12.1071 18.2236 12.9961C18.6076 13.69 18.8125 14.4679 18.8125 15.2588C18.8125 17.8727 16.6871 19.9998 14.0732 20H14.0713C12.6753 20 11.385 19.3939 10.502 18.3809C9.61795 19.3939 8.32862 20 6.93262 20C4.31877 19.9998 2.19238 17.8727 2.19238 15.2588C2.19242 14.4689 2.39826 13.692 2.78223 12.9971C1.66623 12.1091 1.00195 10.7675 1.00195 9.31055C1.00219 6.63874 3.19409 4.45323 5.91895 4.57422C6.43895 2.50922 8.29695 1.00098 10.502 1.00098ZM10.502 2.75098C8.90812 2.75098 7.60257 4.00373 7.52832 5.60449C7.51632 5.86549 7.38771 6.10767 7.17871 6.26367C6.97079 6.41961 6.70114 6.47394 6.44922 6.41504C6.18229 6.35106 5.95807 6.32033 5.74512 6.32031C4.09626 6.32031 2.75414 7.66174 2.75391 9.31055C2.75391 10.4355 3.38818 11.4547 4.40918 11.9697C4.65014 12.0907 4.82105 12.3161 4.87305 12.5801C4.926 12.844 4.85369 13.1173 4.67871 13.3213C4.34379 13.7113 3.94439 14.3631 3.94434 15.2588C3.94434 16.9077 5.28575 18.2498 6.93457 18.25C8.14554 18.25 9.23027 17.5262 9.69629 16.4072C9.83216 16.0815 10.1493 15.8686 10.5029 15.8682C10.8565 15.8686 11.1737 16.0815 11.3096 16.4072C11.7766 17.5262 12.8613 18.25 14.0723 18.25C15.7201 18.2498 17.0615 16.9077 17.0615 15.2588C17.0615 14.3621 16.664 13.7103 16.3291 13.3223C16.1531 13.1183 16.0808 12.844 16.1338 12.5801C16.1868 12.3161 16.3577 12.0907 16.5977 11.9697C17.6187 11.4547 18.2529 10.4355 18.2529 9.31055H18.251C18.2507 7.66174 16.9086 6.32031 15.2598 6.32031C15.0488 6.32033 14.8186 6.35106 14.5547 6.41504C14.3028 6.47494 14.0341 6.42061 13.8252 6.26367C13.6162 6.10667 13.4876 5.86549 13.4756 5.60449C13.4013 4.00473 12.0958 2.75098 10.502 2.75098Z" fill="black"/>
</g>
<defs>
<clipPath id="clip0_8069_32745">
<rect width="20" height="20" fill="white"/>
</clipPath>
</defs>
</svg>

<!-- This Source Code Form is subject to the terms of the Mozilla Public
   - License, v. 2.0. If a copy of the MPL was not distributed with this
   - file, You can obtain one at http://mozilla.org/MPL/2.0/. -->
<svg xmlns="http://www.w3.org/2000/svg" width="20" height="20" fill="context-fill" fill-opacity="context-fill-opacity" viewBox="0 0 20 20">
    <g clip-path="url(#clip0_8069_32745)">
        <path d="M10.5 9.251a1.25 1.25 0 1 1 0 2.5 1.25 1.25 0 0 1 0-2.5" />
        <path fill-rule="evenodd" d="M10.502 1.001a4.72 4.72 0 0 1 4.582 3.573 4.72 4.72 0 0 1 4.917 4.736 4.69 4.69 0 0 1-1.777 3.686c.384.694.588 1.472.588 2.263A4.746 4.746 0 0 1 14.074 20h-.002a4.73 4.73 0 0 1-3.569-1.62A4.73 4.73 0 0 1 6.932 20a4.746 4.746 0 0 1-4.74-4.741c0-.79.206-1.567.59-2.262a4.7 4.7 0 0 1-1.78-3.686c0-2.672 2.192-4.858 4.917-4.737a4.724 4.724 0 0 1 4.583-3.573m0 1.75a2.98 2.98 0 0 0-2.974 2.853.873.873 0 0 1-1.079.811 3 3 0 0 0-.704-.095 2.995 2.995 0 0 0-2.991 2.99c0 1.125.634 2.145 1.655 2.66a.875.875 0 0 1 .27 1.352 2.95 2.95 0 0 0-.735 1.937 2.995 2.995 0 0 0 2.99 2.991 2.985 2.985 0 0 0 2.762-1.843.875.875 0 0 1 1.614 0 2.99 2.99 0 0 0 2.762 1.843 2.994 2.994 0 0 0 2.99-2.991c0-.897-.398-1.549-.733-1.937a.874.874 0 0 1 .269-1.352 2.97 2.97 0 0 0 1.655-2.66h-.002a2.995 2.995 0 0 0-2.991-2.99c-.211 0-.441.031-.705.095a.878.878 0 0 1-1.08-.81 2.98 2.98 0 0 0-2.973-2.854" clip-rule="evenodd" />
    </g>
</svg>
